X:1
T:Village -- Hornpipe
R:hornpipe
B:Cole's 1000 Fiddle Tunes
M:2/4
L:1/16
K:D
uA,2|v"4"D3uD "0"DFEF|DGAB .A2(Bc)|dcdB AFDF|DFEC .B,2.A,2|
v"4"D3uD "0"DFEF|DGAB .A2(Bc)|dfab ageg|f2d2d2:|
|:(ufg)|va3ub agef|gefd "4"edBc|dB{c}BA .B2(ab)|
va3ub agef|gefd "4"edBc|dcdB AFDF|E2D2D2:|
